src/assets/gamificationicon.svg

<svg width="56" height="56" viewBox="0 0 56 56" fill="none" xmlns="http://www.w3.org/2000/svg">
<path d="M33.2011 50.75C33.2011 50.5179 33.1089 50.2954 32.9448 50.1313C32.7807 49.9672 32.5581 49.875 32.3261 49.875H23.6251C23.393 49.875 23.1705 49.9672 23.0064 50.1313C22.8423 50.2954 22.7501 50.5179 22.7501 50.75C22.7501 53.1624 24.7127 55.125 27.1251 55.125H28.8261C31.2385 55.125 33.2011 53.1624 33.2011 50.75ZM28.8261 53.375H27.1251C26.5823 53.3743 26.0531 53.2058 25.6099 52.8925C25.1667 52.5792 24.8313 52.1364 24.6497 51.625H31.3006C31.1192 52.1364 30.784 52.5792 30.3409 52.8926C29.8979 53.2059 29.3687 53.3744 28.8261 53.375ZM28.0001 42.875C27.518 42.875 27.1251 42.4821 27.1251 42H25.3751C25.3751 43.1393 26.1092 44.1018 27.1251 44.464V45.5H28.8751V44.464C29.3854 44.2841 29.8276 43.9507 30.1409 43.5096C30.4542 43.0684 30.6233 42.5411 30.6251 42C30.6251 40.5527 29.4473 39.375 28.0001 39.375C27.518 39.375 27.1251 38.9821 27.1251 38.5C27.1251 38.0179 27.518 37.625 28.0001 37.625C28.4822 37.625 28.8751 38.0179 28.8751 38.5H30.6251C30.6233 37.9589 30.4542 37.4316 30.1409 36.9904C29.8276 36.5493 29.3854 36.2159 28.8751 36.036V35H27.1251V36.036C26.6147 36.2159 26.1726 36.5493 25.8593 36.9904C25.5459 37.4316 25.3768 37.9589 25.3751 38.5C25.3751 39.9473 26.5528 41.125 28.0001 41.125C28.4822 41.125 28.8751 41.5179 28.8751 42C28.8751 42.4821 28.4822 42.875 28.0001 42.875ZM14.8978 25.011L14.9792 25.9516C15.2058 28.5723 17.5097 30.625 20.2231 30.625H20.7297C22.1297 30.625 23.4466 30.0982 24.4397 29.1427L25.5037 28.1172C26.1591 27.4872 27.0691 27.125 28.0001 27.125C28.9311 27.125 29.8411 27.4872 30.4956 28.1172L31.5605 29.1427C32.5574 30.1003 33.8881 30.6319 35.2705 30.625H35.7771C38.4913 30.625 40.7943 28.5723 41.0218 25.9516L41.1032 25.0119C41.2493 23.3249 40.6902 21.6991 39.5308 20.4348C38.3295 19.1258 36.604 18.375 34.7971 18.375H21.2031C19.3962 18.375 17.6707 19.1258 16.4702 20.4339C15.3108 21.6991 14.7517 23.3249 14.8978 25.011ZM16.6408 24.8605C16.5376 23.6688 16.9348 22.5164 17.76 21.6169C18.1997 21.1439 18.7327 20.7671 19.3253 20.5103C19.9179 20.2536 20.5572 20.1224 21.2031 20.125H34.7971C36.1157 20.125 37.3705 20.6692 38.2402 21.6169C39.0653 22.5164 39.4626 23.6679 39.3593 24.8605L39.278 25.8003C39.1283 27.5249 37.591 28.875 35.7771 28.875H35.2705C34.342 28.8758 33.4486 28.5207 32.7741 27.8827L31.7092 26.8573C30.717 25.9018 29.3992 25.375 28.0001 25.375C26.601 25.375 25.2832 25.9018 24.2901 26.8573L23.2261 27.8827C22.5515 28.5207 21.6581 28.8758 20.7297 28.875H20.2231C18.4092 28.875 16.871 27.5249 16.7222 25.8011L16.6408 24.8605Z" fill="#F9AFB2"/>
<path d="M20.125 27.125H21.875V25.375H23.625V23.625H21.875V21.875H20.125V23.625H18.375V25.375H20.125V27.125Z" fill="#F9AFB2"/>
<path d="M35 23.625C35.4832 23.625 35.875 23.2332 35.875 22.75C35.875 22.2668 35.4832 21.875 35 21.875C34.5168 21.875 34.125 22.2668 34.125 22.75C34.125 23.2332 34.5168 23.625 35 23.625Z" fill="#F9AFB2"/>
<path d="M33.25 26.25C33.7332 26.25 34.125 25.8582 34.125 25.375C34.125 24.8918 33.7332 24.5 33.25 24.5C32.7668 24.5 32.375 24.8918 32.375 25.375C32.375 25.8582 32.7668 26.25 33.25 26.25Z" fill="#F9AFB2"/>
<path d="M36.75 26.25C37.2332 26.25 37.625 25.8582 37.625 25.375C37.625 24.8918 37.2332 24.5 36.75 24.5C36.2668 24.5 35.875 24.8918 35.875 25.375C35.875 25.8582 36.2668 26.25 36.75 26.25Z" fill="#F9AFB2"/>
<path d="M13.125 32.375C13.125 37.0011 15.5164 41.3411 19.523 43.9854C20.9956 44.9575 21.875 46.5045 21.875 48.125C21.875 48.3571 21.9672 48.5796 22.1313 48.7437C22.2954 48.9078 22.5179 49 22.75 49H33.25C33.4821 49 33.7046 48.9078 33.8687 48.7437C34.0328 48.5796 34.125 48.3571 34.125 48.125C34.125 46.5045 35.0044 44.9575 36.477 43.9854C40.4836 41.3411 42.875 37.0011 42.875 32.375C42.875 32.1429 42.7828 31.9204 42.6187 31.7563C42.4546 31.5922 42.2321 31.5 42 31.5H14C13.7679 31.5 13.5454 31.5922 13.3813 31.7563C13.2172 31.9204 13.125 32.1429 13.125 32.375ZM41.0918 33.25C40.8126 36.9548 38.7721 40.3742 35.5136 42.525C33.81 43.6494 32.7014 45.3723 32.4362 47.25H23.5638C23.2986 45.3723 22.19 43.6485 20.4864 42.525C17.2279 40.3742 15.1874 36.9548 14.9083 33.25H41.0918ZM42.6493 30.3222L44.373 30.625C44.4798 30.016 44.5541 29.3939 44.5926 28.7612L43.722 28.665L42.8452 28.6668C42.8111 29.2218 42.7456 29.7745 42.6493 30.3222ZM11.5929 30.436L13.3201 30.1534C13.2309 29.6082 13.1714 29.0509 13.1434 28.4953L11.396 28.5836C11.4266 29.204 11.4931 29.827 11.5929 30.436ZM44.4027 25.0014L42.6755 25.2866C42.7665 25.8335 42.8269 26.3909 42.8558 26.9439L44.6031 26.8529C44.5704 26.2325 44.5035 25.6144 44.4027 25.0014ZM11.41 26.6665L11.4056 26.7339L13.1548 26.8004C13.1889 26.2552 13.2536 25.7066 13.3464 25.1703L11.6217 24.871C11.5189 25.4653 11.4482 26.0646 11.41 26.6665ZM41.7655 22.0868C41.9764 22.5995 42.1601 23.1298 42.3115 23.6609L43.995 23.1822C43.8249 22.584 43.621 21.996 43.3843 21.4209L41.7655 22.0868ZM12.0435 23.0554L13.7235 23.5471C13.8793 23.0142 14.0665 22.4857 14.2809 21.9756L12.6674 21.2992C12.4263 21.8723 12.218 22.4587 12.0435 23.0554ZM41.0462 20.5826L42.5801 19.7409C42.2826 19.1984 41.9501 18.6664 41.5931 18.1597L40.1634 19.1686C40.4828 19.6219 40.7794 20.0979 41.0462 20.5826ZM15.0115 20.4768C15.2828 19.992 15.5838 19.5186 15.9066 19.0698L14.4856 18.0486C14.123 18.5537 13.7888 19.0787 13.4846 19.621L15.0115 20.4768ZM40.4364 16.7011C40.0237 16.2365 39.5858 15.7948 39.1248 15.3781L37.9523 16.6775C38.3644 17.0494 38.7599 17.4484 39.1274 17.8622L40.4364 16.7011ZM18.1379 16.5979L16.9794 15.2862C16.5165 15.6949 16.0711 16.1367 15.6546 16.5979L16.954 17.7704C17.3259 17.3574 17.7249 16.9627 18.1379 16.5979ZM37.6731 14.21C37.1676 13.8473 36.6421 13.5134 36.099 13.2099L35.245 14.7376C35.7306 15.0089 36.204 15.309 36.652 15.631L37.6731 14.21ZM20.8617 14.6807L20.0209 13.146C19.4793 13.4426 18.9472 13.7742 18.4397 14.1312L19.4469 15.5627C19.9017 15.2426 20.374 14.9481 20.8617 14.6807ZM34.4225 12.3944C33.8484 12.1543 33.2612 11.9469 32.6638 11.7731L32.1746 13.4531C32.7084 13.6088 33.2331 13.7943 33.7461 14.0088L34.4225 12.3944ZM23.9417 13.4172L23.4631 11.7337C22.8655 11.9035 22.2723 12.1091 21.7009 12.3427L22.3659 13.9624C22.8807 13.7516 23.4068 13.5696 23.9417 13.4172ZM28.9984 11.1387L28.9328 12.8879C29.4744 12.922 30.0178 12.9859 30.5498 13.0778L30.8481 11.3531C30.2502 11.2495 29.647 11.1788 29.0412 11.1414L28.9984 11.1387ZM27.2248 12.8774L27.1346 11.13C26.5142 11.1615 25.8912 11.2289 25.2822 11.3286L25.5666 13.0559C26.1156 12.9655 26.6691 12.9059 27.2248 12.8774ZM27.125 5.964V10.5H28.875V5.964C29.3853 5.78412 29.8275 5.45072 30.1408 5.00956C30.4541 4.56841 30.6233 4.0411 30.625 3.5C30.625 2.05275 29.4473 0.875 28 0.875C26.5527 0.875 25.375 2.05275 25.375 3.5C25.375 4.63925 26.1091 5.60175 27.125 5.964ZM28 2.625C28.4821 2.625 28.875 3.01788 28.875 3.5C28.875 3.98212 28.4821 4.375 28 4.375C27.5179 4.375 27.125 3.98212 27.125 3.5C27.125 3.01788 27.5179 2.625 28 2.625ZM49 19.25C49 20.3893 49.7341 21.3517 50.75 21.714V27.125H46.375V28.875H51.625C51.8571 28.875 52.0796 28.7828 52.2437 28.6187C52.4078 28.4546 52.5 28.2321 52.5 28V21.714C53.0103 21.5341 53.4525 21.2007 53.7658 20.7596C54.0791 20.3184 54.2483 19.7911 54.25 19.25C54.25 17.8027 53.0723 16.625 51.625 16.625C50.1777 16.625 49 17.8027 49 19.25ZM51.625 18.375C52.1071 18.375 52.5 18.7679 52.5 19.25C52.5 19.7321 52.1071 20.125 51.625 20.125C51.1429 20.125 50.75 19.7321 50.75 19.25C50.75 18.7679 51.1429 18.375 51.625 18.375ZM44.625 11.9158L47.6411 10.4073C47.7866 10.3348 47.9089 10.2232 47.9944 10.085C48.0799 9.9468 48.1251 9.7875 48.125 9.625V7.714C48.6353 7.53412 49.0775 7.20072 49.3908 6.75956C49.7041 6.31841 49.8733 5.7911 49.875 5.25C49.875 3.80275 48.6973 2.625 47.25 2.625C45.8027 2.625 44.625 3.80275 44.625 5.25C44.625 6.38925 45.3591 7.35175 46.375 7.714V9.08425L43.3589 10.5927C43.2134 10.6652 43.0911 10.7768 43.0056 10.915C42.9201 11.0532 42.8749 11.2125 42.875 11.375V15.75H44.625V11.9158ZM47.25 4.375C47.7321 4.375 48.125 4.76788 48.125 5.25C48.125 5.73212 47.7321 6.125 47.25 6.125C46.7679 6.125 46.375 5.73212 46.375 5.25C46.375 4.76788 46.7679 4.375 47.25 4.375ZM49.161 43.75C49.3409 44.2603 49.6743 44.7025 50.1154 45.0158C50.5566 45.3291 51.0839 45.4983 51.625 45.5C53.0723 45.5 54.25 44.3223 54.25 42.875C54.25 41.4277 53.0723 40.25 51.625 40.25C51.0839 40.2517 50.5566 40.4209 50.1154 40.7342C49.6743 41.0475 49.3409 41.4897 49.161 42H48.125V33.25C48.125 33.0179 48.0328 32.7954 47.8687 32.6313C47.7046 32.4672 47.4821 32.375 47.25 32.375H44.625V34.125H46.375V42.875C46.375 43.1071 46.4672 43.3296 46.6313 43.4937C46.7954 43.6578 47.0179 43.75 47.25 43.75H49.161ZM51.625 42C52.1071 42 52.5 42.3929 52.5 42.875C52.5 43.3571 52.1071 43.75 51.625 43.75C51.1429 43.75 50.75 43.3571 50.75 42.875C50.75 42.3929 51.1429 42 51.625 42ZM8.75 7.714V9.625C8.75 9.95663 8.93725 10.2594 9.23388 10.4081L12.25 11.9158V15.75H14V11.375C14 11.0434 13.8127 10.7406 13.5161 10.5919L10.5 9.08425V7.714C11.0103 7.53412 11.4525 7.20072 11.7658 6.75956C12.0791 6.31841 12.2483 5.7911 12.25 5.25C12.25 3.80275 11.0723 2.625 9.625 2.625C8.17775 2.625 7 3.80275 7 5.25C7 6.38925 7.73412 7.35175 8.75 7.714ZM9.625 4.375C10.1071 4.375 10.5 4.76788 10.5 5.25C10.5 5.73212 10.1071 6.125 9.625 6.125C9.14288 6.125 8.75 5.73212 8.75 5.25C8.75 4.76788 9.14288 4.375 9.625 4.375ZM4.375 45.5C4.9161 45.4983 5.44341 45.3291 5.88456 45.0158C6.32572 44.7025 6.65912 44.2603 6.839 43.75H8.75C8.98206 43.75 9.20462 43.6578 9.36872 43.4937C9.53281 43.3296 9.625 43.1071 9.625 42.875V34.125H11.375V32.375H8.75C8.51794 32.375 8.29538 32.4672 8.13128 32.6313C7.96719 32.7954 7.875 33.0179 7.875 33.25V42H6.839C6.65912 41.4897 6.32572 41.0475 5.88456 40.7342C5.44341 40.4209 4.9161 40.2517 4.375 40.25C2.92775 40.25 1.75 41.4277 1.75 42.875C1.75 44.3223 2.92775 45.5 4.375 45.5ZM4.375 42C4.85712 42 5.25 42.3929 5.25 42.875C5.25 43.3571 4.85712 43.75 4.375 43.75C3.89288 43.75 3.5 43.3571 3.5 42.875C3.5 42.3929 3.89288 42 4.375 42ZM3.5 21.714V28C3.5 28.2321 3.59219 28.4546 3.75628 28.6187C3.92038 28.7828 4.14294 28.875 4.375 28.875H9.625V27.125H5.25V21.714C5.76033 21.5341 6.20249 21.2007 6.51581 20.7596C6.82913 20.3184 6.99827 19.7911 7 19.25C7 17.8027 5.82225 16.625 4.375 16.625C2.92775 16.625 1.75 17.8027 1.75 19.25C1.75 20.3893 2.48412 21.3517 3.5 21.714ZM4.375 18.375C4.85712 18.375 5.25 18.7679 5.25 19.25C5.25 19.7321 4.85712 20.125 4.375 20.125C3.89288 20.125 3.5 19.7321 3.5 19.25C3.5 18.7679 3.89288 18.375 4.375 18.375Z" fill="#B30000"/>
</svg>

<svg width="56" height="56" viewBox="0 0 56 56" fill="none" xmlns="http://www.w3.org/2000/svg">
    <path d="M33.201 50.75a.875.875 0 0 0-.875-.875h-8.7a.875.875 0 0 0-.876.875 4.38 4.38 0 0 0 4.375 4.375h1.701a4.38 4.38 0 0 0 4.375-4.375zm-4.375 2.625h-1.7a2.63 2.63 0 0 1-2.476-1.75h6.65a2.63 2.63 0 0 1-2.474 1.75zM28 42.875a.876.876 0 0 1-.875-.875h-1.75c0 1.14.734 2.102 1.75 2.464V45.5h1.75v-1.036A2.622 2.622 0 0 0 30.625 42 2.628 2.628 0 0 0 28 39.375a.876.876 0 0 1-.875-.875c0-.482.393-.875.875-.875s.875.393.875.875h1.75a2.622 2.622 0 0 0-1.75-2.464V35h-1.75v1.036a2.621 2.621 0 0 0-1.75 2.464A2.628 2.628 0 0 0 28 41.125c.482 0 .875.393.875.875a.876.876 0 0 1-.875.875zM14.898 25.011l.081.94c.227 2.621 2.53 4.674 5.244 4.674h.507c1.4 0 2.717-.527 3.71-1.482l1.064-1.026A3.629 3.629 0 0 1 28 27.125c.931 0 1.841.362 2.496.992l1.065 1.026a5.317 5.317 0 0 0 3.71 1.482h.506c2.714 0 5.017-2.053 5.245-4.673l.081-.94c.146-1.687-.413-3.313-1.572-4.577a6.431 6.431 0 0 0-4.734-2.06H21.203a6.43 6.43 0 0 0-4.733 2.059c-1.16 1.265-1.718 2.89-1.572 4.577zm1.743-.15a4.216 4.216 0 0 1 1.119-3.244 4.675 4.675 0 0 1 3.443-1.492h13.594c1.319 0 2.574.544 3.443 1.492a4.215 4.215 0 0 1 1.12 3.243l-.082.94c-.15 1.725-1.687 3.075-3.5 3.075h-.508a3.628 3.628 0 0 1-2.496-.992l-1.065-1.026A5.317 5.317 0 0 0 28 25.375a5.32 5.32 0 0 0-3.71 1.482l-1.064 1.026a3.629 3.629 0 0 1-2.496.992h-.507c-1.814 0-3.352-1.35-3.5-3.074l-.082-.94z" fill="#F9AFB2"/>
    <path d="M20.125 27.125h1.75v-1.75h1.75v-1.75h-1.75v-1.75h-1.75v1.75h-1.75v1.75h1.75v1.75zM35 23.625a.875.875 0 1 0 0-1.75.875.875 0 0 0 0 1.75zM33.25 26.25a.875.875 0 1 0 0-1.75.875.875 0 0 0 0 1.75zM36.75 26.25a.875.875 0 1 0 0-1.75.875.875 0 0 0 0 1.75z" fill="#F9AFB2"/>
    <path d="M13.125 32.375c0 4.626 2.391 8.966 6.398 11.61 1.473.973 2.352 2.52 2.352 4.14a.875.875 0 0 0 .875.875h10.5a.875.875 0 0 0 .875-.875c0-1.62.88-3.167 2.352-4.14 4.007-2.644 6.398-6.984 6.398-11.61A.875.875 0 0 0 42 31.5H14a.875.875 0 0 0-.875.875zm27.967.875c-.28 3.705-2.32 7.124-5.578 9.275-1.704 1.124-2.813 2.847-3.078 4.725h-8.872c-.265-1.878-1.374-3.602-3.078-4.725-3.258-2.15-5.299-5.57-5.578-9.275h26.184zm1.557-2.928 1.724.303a16.64 16.64 0 0 0 .22-1.864l-.871-.096-.877.002c-.034.555-.1 1.107-.196 1.655zm-31.056.114 1.727-.283a14.97 14.97 0 0 1-.177-1.658l-1.747.089c.03.62.097 1.243.197 1.852zm32.81-5.435-1.727.286c.09.547.15 1.104.18 1.657l1.747-.091a16.89 16.89 0 0 0-.2-1.852zM11.41 26.666l-.004.068 1.749.066a15.15 15.15 0 0 1 .191-1.63l-1.724-.299a16.763 16.763 0 0 0-.212 1.796zm30.356-4.58c.21.514.394 1.044.546 1.575l1.683-.479a16.446 16.446 0 0 0-.61-1.761l-1.62.666zm-29.722.97 1.68.491c.155-.533.342-1.061.557-1.571l-1.614-.677a16.4 16.4 0 0 0-.623 1.756zm29.002-2.473 1.534-.842a16.693 16.693 0 0 0-.987-1.581l-1.43 1.009c.32.453.616.929.883 1.414zm-26.035-.106c.272-.485.573-.958.896-1.407l-1.421-1.021a16.74 16.74 0 0 0-1.001 1.572l1.527.856zM40.436 16.7a17.02 17.02 0 0 0-1.311-1.323l-1.173 1.3c.412.371.808.77 1.175 1.184l1.31-1.16zm-22.298-.103-1.159-1.312c-.462.409-.908.85-1.324 1.312l1.299 1.172c.372-.413.77-.807 1.184-1.172zm19.535-2.388a16.544 16.544 0 0 0-1.574-1l-.854 1.528c.486.27.959.571 1.407.893l1.021-1.421zm-16.811.47-.841-1.534c-.542.297-1.074.628-1.581.985l1.007 1.432c.455-.32.927-.615 1.415-.882zm13.56-2.286a16.515 16.515 0 0 0-1.758-.62l-.49 1.68c.534.155 1.06.34 1.572.555l.676-1.615zm-10.48 1.023-.479-1.683c-.598.17-1.19.375-1.762.609l.665 1.62c.515-.211 1.04-.393 1.576-.546zm5.056-2.278-.065 1.749c.541.034 1.085.098 1.617.19l.298-1.725a16.56 16.56 0 0 0-1.807-.212l-.043-.002zm-1.773 1.738-.09-1.747c-.62.031-1.244.099-1.853.199l.285 1.727c.549-.09 1.102-.15 1.658-.179zm-.1-6.913V10.5h1.75V5.964a2.621 2.621 0 0 0 1.75-2.464A2.628 2.628 0 0 0 28 .875 2.628 2.628 0 0 0 25.375 3.5c0 1.14.734 2.102 1.75 2.464zM28 2.625c.482 0 .875.393.875.875a.876.876 0 0 1-.875.875.876.876 0 0 1-.875-.875c0-.482.393-.875.875-.875zM49 19.25c0 1.14.734 2.102 1.75 2.464v5.411h-4.375v1.75h5.25A.875.875 0 0 0 52.5 28v-6.286a2.622 2.622 0 0 0 1.75-2.464 2.628 2.628 0 0 0-2.625-2.625A2.628 2.628 0 0 0 49 19.25zm2.625-.875c.482 0 .875.393.875.875a.876.876 0 0 1-.875.875.876.876 0 0 1-.875-.875c0-.482.393-.875.875-.875zm-7-6.46 3.016-1.508a.873.873 0 0 0 .484-.782V7.714a2.621 2.621 0 0 0 1.75-2.464 2.628 2.628 0 0 0-2.625-2.625 2.628 2.628 0 0 0-2.625 2.625c0 1.14.734 2.102 1.75 2.464v1.37l-3.016 1.509a.873.873 0 0 0-.484.782v4.375h1.75v-3.834zm2.625-7.54c.482 0 .875.393.875.875a.876.876 0 0 1-.875.875.876.876 0 0 1-.875-.875c0-.482.393-.875.875-.875zm1.911 39.375a2.622 2.622 0 0 0 2.464 1.75 2.628 2.628 0 0 0 2.625-2.625 2.628 2.628 0 0 0-2.625-2.625A2.622 2.622 0 0 0 49.161 42h-1.036v-8.75a.875.875 0 0 0-.875-.875h-2.625v1.75h1.75v8.75a.875.875 0 0 0 .875.875h1.911zM51.625 42c.482 0 .875.393.875.875a.876.876 0 0 1-.875.875.876.876 0 0 1-.875-.875c0-.482.393-.875.875-.875zM8.75 7.714v1.911c0 .332.187.634.484.783l3.016 1.508v3.834H14v-4.375a.876.876 0 0 0-.484-.783L10.5 9.084v-1.37a2.621 2.621 0 0 0 1.75-2.464 2.628 2.628 0 0 0-2.625-2.625A2.628 2.628 0 0 0 7 5.25c0 1.14.734 2.102 1.75 2.464zm.875-3.339c.482 0 .875.393.875.875a.876.876 0 0 1-.875.875.876.876 0 0 1-.875-.875c0-.482.393-.875.875-.875zM4.375 45.5a2.621 2.621 0 0 0 2.464-1.75H8.75a.875.875 0 0 0 .875-.875v-8.75h1.75v-1.75H8.75a.875.875 0 0 0-.875.875V42H6.839a2.621 2.621 0 0 0-2.464-1.75 2.628 2.628 0 0 0-2.625 2.625A2.628 2.628 0 0 0 4.375 45.5zm0-3.5c.482 0 .875.393.875.875a.876.876 0 0 1-.875.875.876.876 0 0 1-.875-.875c0-.482.393-.875.875-.875zM3.5 21.714V28a.875.875 0 0 0 .875.875h5.25v-1.75H5.25v-5.411A2.622 2.622 0 0 0 7 19.25a2.628 2.628 0 0 0-2.625-2.625A2.628 2.628 0 0 0 1.75 19.25c0 1.14.734 2.102 1.75 2.464zm.875-3.339c.482 0 .875.393.875.875a.876.876 0 0 1-.875.875.876.876 0 0 1-.875-.875c0-.482.393-.875.875-.875z" fill="#004498"/>
</svg>
